cube/images/cube.svg

<svg xmlns="http://www.w3.org/2000/svg" viewBox="0 0 512 512">
  <path fill="#fff" d="M15 120L256 0l241 120v272L256 512 15 392z"/>
  <path fill="#323232" fill-rule="evenodd" d="M25 126L256 11l231 115v261L256 502 25 387m46-254l185-93 185 93-185 93m19 24l182-90v208l-182 90z"/>
</svg>

<svg xmlns="http://www.w3.org/2000/svg" viewBox="0 0 512 512">
    <path fill="#323232" fill-rule="evenodd" d="M 25 126 L 256 11 L 487 126 L 487 387 L 256 502 L 25 387 M 71 133 L 256 40 L 441 133 L 256 226 M 275 250 L 457 160 L 457 368 L 275 458 Z" />
</svg>
